svgs/photon.svg

<svg xmlns="http://www.w3.org/2000/svg" viewBox="0 0 192 192"><path d="M169.023 26.835c-.353-1.765-1.765-3.177-3.177-3.177-21.533-6.708-54.01 7.413-81.191 34.594-10.943 10.943-20.121 23.651-26.828 36.006-1.059 1.765-.706 4.236 1.059 6.001l33.535 33.535c1.412 1.412 3.883 1.765 6.001 1.059 12.708-6.354 24.71-15.532 36.007-26.828 26.828-27.534 40.948-60.01 34.594-81.19ZM121.72 91.787c-6.001 6.001-15.179 6.001-21.18 0-6.001-6.001-6.001-15.179 0-21.18l14.12-14.12c6.001-6.001 15.18-6.001 21.181 0 6.001 6.001 6.001 15.179 0 21.18Zm-37.771 46.949-30.358-30.358-12.355 7.413c-1.412.706-2.118 2.118-2.471 3.883-.353 1.765.706 2.824 1.765 3.883l28.24 28.24c1.059 1.059 2.471 1.765 4.236 1.412 1.765-.353 3.177-1.059 3.883-2.471Zm-34.594-49.42c6.707-13.061 16.591-26.475 28.24-38.124C58.18 56.487 40.177 67.43 25.704 81.903l-2.824 2.824c-1.412 1.412-1.765 3.177-1.059 5.295 0 .706.706 1.412 1.059 1.765.706.706 1.765 1.059 2.824 1.412l22.239 2.471c0-2.118.353-4.589 1.412-6.354Zm92.134 25.063c-12.002 12.002-25.417 21.886-38.478 28.593-1.765 1.059-4.236 1.412-6.354 1.412l2.471 21.533c.353 1.059.706 2.118 1.412 2.824.353.353 1.059 1.059 1.765 1.059 1.765.353 3.883.353 5.295-1.059l2.824-2.824c14.473-13.767 25.417-31.77 31.065-51.538Z"/></svg>

<svg
    xmlns="http://www.w3.org/2000/svg"
    viewBox="0 0 192 192"
    id="vector">
    <path
        id="path"
        d="M 169.023 26.835 C 168.67 25.07 167.258 23.658 165.846 23.658 C 144.313 16.95 111.836 31.071 84.655 58.252 C 73.712 69.195 64.534 81.903 57.827 94.258 C 56.768 96.023 57.121 98.494 58.886 100.259 L 92.421 133.794 C 93.833 135.206 96.304 135.559 98.422 134.853 C 111.13 128.499 123.132 119.321 134.429 108.025 C 161.257 80.491 175.377 48.015 169.023 26.835 Z M 121.72 91.787 C 115.719 97.788 106.541 97.788 100.54 91.787 C 94.539 85.786 94.539 76.608 100.54 70.607 L 114.66 56.487 C 120.661 50.486 129.84 50.486 135.841 56.487 C 141.842 62.488 141.842 71.666 135.841 77.667 Z M 83.949 138.736 L 53.591 108.378 L 41.236 115.791 C 39.824 116.497 39.118 117.909 38.765 119.674 C 38.412 121.439 39.471 122.498 40.53 123.557 L 68.77 151.797 C 69.829 152.856 71.241 153.562 73.006 153.209 C 74.771 152.856 76.183 152.15 76.889 150.738 Z M 49.355 89.316 C 56.062 76.255 65.946 62.841 77.595 51.192 C 58.18 56.487 40.177 67.43 25.704 81.903 L 22.88 84.727 C 21.468 86.139 21.115 87.904 21.821 90.022 C 21.821 90.728 22.527 91.434 22.88 91.787 C 23.586 92.493 24.645 92.846 25.704 93.199 L 47.943 95.67 C 47.943 93.552 48.296 91.081 49.355 89.316 Z M 141.489 114.379 C 129.487 126.381 116.072 136.265 103.011 142.972 C 101.246 144.031 98.775 144.384 96.657 144.384 L 99.128 165.917 C 99.481 166.976 99.834 168.035 100.54 168.741 C 100.893 169.094 101.599 169.8 102.305 169.8 C 104.07 170.153 106.188 170.153 107.6 168.741 L 110.424 165.917 C 124.897 152.15 135.841 134.147 141.489 114.379 Z"
        fill="#000000"
        stroke-width="12"/>
</svg>
